X: 6587
T: Cats Of Camazen, The
R: reel
M: 4/4
K: Gmajor
|:d2 cA BdcA|BGBc d3 e|cABc ABcA|BGBc d4|
d2 cA BdcA|BGBc dGB/c/d|cdcA BdcA|1 AGAB G4:|2 AGAB G2 gf||
|:ec c2 Gcec|dB B2 GBdB|cABc ABcA|BGBc d2 gf|
ec c2 Gcec|dB B2 GBdB|cABc ABcA|1 AGAB G2 gf:|2 AGAB G4||

